X: 279
T:John Keane's Polka
M:2/4
L:1/8
S: Matt Cranitch
K:G
A>B cd|ef fe|ag ed|B/d/B/A/ G|
A>B cd|ef (fe|a)vg/ue/ dB|A2A2:|
ag ed |ef g2|a>g ed|BA G2|
A>B cd|ef (fe|a)vg/ue/ dB|A2A2:|
